packages/foundations/assets/icons/functional/images/human/shower_women_20.svg

<svg width="20" height="20" viewBox="0 0 20 20" fill="none" xmlns="http://www.w3.org/2000/svg">
<g clip-path="url(#clip0_185_1194)">
<path fill-rule="evenodd" clip-rule="evenodd" d="M8.50016 14.0005C9.41033 14.0005 10.1011 14.6464 10.4071 15.4216L10.9765 16.7836C11.0963 17.3228 10.7563 17.857 10.2171 17.9768C9.67789 18.0966 9.21139 17.6601 9.02384 17.2174L8.4837 16.0006H4.50016L3.97631 17.2182C3.74493 17.7271 3.32159 18.0969 2.78248 17.9766C2.24337 17.8564 1.90379 17.3219 2.02401 16.7828L2.5776 15.4376C2.81915 14.7654 3.5365 14.0005 4.50016 14.0005H8.50016ZM6.52178 6.75055C8.04016 6.75055 9.25016 7.96049 9.2501 9.47886C9.25989 10.9968 8.03964 12.2364 6.52178 12.2505C4.99545 12.2399 3.76072 11.0052 3.75016 9.47886C3.76433 7.96104 5.00392 6.74082 6.52178 6.75055ZM14.9807 10.5675C15.074 10.9709 14.8225 11.3736 14.419 11.4666C14.0155 11.5597 13.6129 11.3081 13.5196 10.9045C13.4263 10.5009 13.6778 10.0984 14.0813 10.0054C14.4848 9.91216 14.8874 10.1639 14.9807 10.5675ZM17.8982 9.87372C18.1065 10.2318 17.9854 10.6907 17.6276 10.8989C17.2697 11.1069 16.8107 10.9853 16.6022 10.6273C16.3938 10.269 16.5148 9.81009 16.8727 9.60208C17.2306 9.39407 17.6898 9.51569 17.8982 9.87372ZM11.6268 9.60095C11.985 9.80944 12.1066 10.2685 11.8985 10.6263C11.6903 10.9842 11.2313 11.1054 10.8733 10.8969C10.5153 10.6884 10.3937 10.2293 10.6019 9.8714C10.8099 9.51366 11.2688 9.39247 11.6268 9.60095ZM14.9806 8.25872C15.0741 8.6623 14.8226 9.06486 14.4191 9.15789C14.0156 9.25109 13.6129 8.99936 13.5196 8.59578C13.4263 8.19237 13.6778 7.78981 14.0813 7.69661C14.4848 7.60358 14.8875 7.85531 14.9806 8.25872ZM12.3769 7.35252C12.735 7.561 12.8566 8.02006 12.6486 8.37797C12.4404 8.73587 11.9814 8.85689 11.6234 8.64841C11.2654 8.4401 11.1437 7.98087 11.3517 7.62313C11.5598 7.26523 12.0189 7.14405 12.3769 7.35252ZM17.1481 7.62368C17.3566 7.98171 17.2354 8.44068 16.8777 8.64886C16.5198 8.85687 16.0607 8.73542 15.8522 8.37721C15.6437 8.01918 15.7649 7.56021 16.1226 7.3522C16.4806 7.14401 16.9396 7.26564 17.1481 7.62368ZM14.2502 2.00049C14.763 2.00049 15.25 2.42909 15.25 3.00049V4.32449L15.6639 4.37531L16.6452 4.51106C17.1916 4.59115 17.5697 5.09905 17.4896 5.6455C17.4095 6.19195 16.9016 6.57001 16.3551 6.48992L15.0893 6.31997C14.8063 6.27365 14.5255 6.25049 14.2469 6.25049C14.0611 6.25049 13.8754 6.26078 13.6896 6.28137L12.1452 6.48992C11.5987 6.57001 11.0908 6.19195 11.0107 5.6455C10.9306 5.09905 11.3087 4.59115 11.8551 4.51106L12.8364 4.37531L13.25 4.32649L13.2502 3.00049C13.2502 2.4482 13.6979 2.00049 14.2502 2.00049Z" fill="#1A1C1F"/>
</g>
<defs>
<clipPath id="clip0_185_1194">
<rect width="20" height="20" fill="white"/>
</clipPath>
</defs>
</svg>

<svg xmlns="http://www.w3.org/2000/svg" width="20" height="20" fill="none"><g clip-path="url(#a)"><path fill="#1A1C1F" fill-rule="evenodd" d="M8.5 14c.91 0 1.601.646 1.907 1.422l.57 1.362a1 1 0 0 1-.76 1.193c-.54.12-1.006-.317-1.193-.76l-.54-1.216H4.5l-.524 1.217c-.231.51-.654.879-1.194.759a1 1 0 0 1-.758-1.194l.554-1.345C2.819 14.765 3.537 14 4.5 14zM6.522 6.75A2.714 2.714 0 0 1 9.25 9.48a2.754 2.754 0 0 1-2.728 2.772A2.79 2.79 0 0 1 3.75 9.479 2.754 2.754 0 0 1 6.522 6.75m8.459 3.818a.75.75 0 1 1-1.46.337.75.75 0 0 1 1.46-.337m2.917-.694a.75.75 0 1 1-1.295.754.75.75 0 0 1 1.295-.754M11.627 9.6a.75.75 0 1 1-.754 1.297.75.75 0 0 1 .754-1.297m3.354-1.342a.75.75 0 1 1-1.46.338.75.75 0 0 1 1.46-.338m-2.604-.906a.75.75 0 1 1-.755 1.297.75.75 0 0 1 .755-1.297m4.771.27a.75.75 0 1 1-1.295.756.75.75 0 0 1 1.295-.755M14.25 2.002c.513 0 1 .428 1 1v1.324l.414.05.981.136a1 1 0 1 1-.29 1.979l-1.266-.17a5.2 5.2 0 0 0-1.4-.039l-1.544.209a1 1 0 0 1-.29-1.979l.981-.136.414-.048V3a1 1 0 0 1 1-1" clip-rule="evenodd"/></g><defs><clipPath id="a"><path fill="#fff" d="M0 0h20v20H0z"/></clipPath></defs></svg>
